!!!OTL: ES RITT EIN JAEGERSMANN
!!!ARE: Europa, Mitteleuropa, Deutschland
!!!SCT: F0620
!!!YEM: Copyright 1995, estate of Helmut Schaffrath.
**kern
*ICvox
*Ivox
*M6/8
*k[f#c#g#d#]
*E:
{8b
=1
4b
8g#
8.b
16a
8g#
=2
8f#
8f#
8f#
4g#}
{8b
=3
4ee
8b
4g#
8e
=4
2b
8r}
{8b
=5
4b
8g#
8.b
16a
8g#
=6
8f#
8f#
8f#
4g#}
{8b
=7
4ee
8b
4g#
8e
=8
2b
8r}
{8b
=9
8b
8f#
8b
8b
8g#
8b
=10
8b
8a
8g#
4f#}
{8b
=11
8b
8f#
8b
8b
8g#
8b
=12
8b
8a
8g#
4f#}
{8e
=13
4e
8g#
4g#
8b
=14
[4.b
4b]}
{8b
=15
8b
8ee
8b
8a
8g#
8f#
=16
4.b
8ee
8r}
{8b
=17
8b
8ee
8b
8a
8g#
8f#
=18
[4.e
8e]
8r}
{8b
=19
8b
8ee
8b
8a
8g#
8f#
=20
[4.e
8e]
8r}
==
!!!AGN: Staende -, Jaeger - Lied
!!!ONB: ESAC (Essen Associative Code) Database: FINK
!!!AMT: compound duple
!!!AIN: vox
!!!EED: Helmut Schaffrath
!!!EEV: 1.0
*-
